src/components/Icon/svg-icon/main/chart-pie.svg

<svg xmlns="http://www.w3.org/2000/svg" width="24" height="24"><path fill="#677078" d="M11 2v20c-5.07-.5-9-4.79-9-10s3.93-9.5 9-10zm2.03 0v8.99H22c-.47-4.74-4.24-8.52-8.97-8.99zm0 11.01V22c4.74-.47 8.5-4.25 8.97-8.99h-8.97z"/></svg>

<svg xmlns="http://www.w3.org/2000/svg" width="24" height="24" viewBox="0 0 24 24">
  <path fill="#677078" d="M11,2 L11,22 C5.93,21.5 2,17.21 2,12 C2,6.79 5.93,2.5 11,2 Z M13.03,2 L13.03,10.99 L22,10.99 C21.53,6.25 17.76,2.47 13.03,2 Z M13.03,13.01 L13.03,22 C17.77,21.53 21.53,17.75 22,13.01 L13.03,13.01 Z"/>
</svg>
